local/share/icons/dracula-icons-main/16/actions/albumfolder-user-trash.svg

<?xml version="1.0" encoding="UTF-8"?>
<svg xmlns="http://www.w3.org/2000/svg" xmlns:xlink="http://www.w3.org/1999/xlink" width="16" height="16" viewBox="0 0 16 16">
<path fill-rule="nonzero" fill="rgb(85.490196%, 26.666667%, 32.54902%)" fill-opacity="1" d="M 6 0 C 5.445312 0 5 0.445312 5 1 L 5 2 L 0.5 2 C 0.222656 2 0 2.222656 0 2.5 C 0 2.777344 0.222656 3 0.5 3 L 1 3 L 1.546875 14.0625 C 1.605469 15.078125 2.449219 16 3.542969 16 L 11.457031 16 C 12.550781 16 13.394531 15.078125 13.453125 14.0625 L 14 3 L 14.5 3 C 14.777344 3 15 2.777344 15 2.5 C 15 2.222656 14.777344 2 14.5 2 L 10 2 L 10 1 C 10 0.445312 9.554688 0 9 0 Z M 6 1 L 9 1 L 9 2 L 6 2 Z M 2 3 L 13 3 L 12.457031 14 C 12.421875 14.554688 12.011719 15 11.457031 15 L 3.542969 15 C 2.988281 15 2.578125 14.554688 2.542969 14 Z M 4.5 5 C 4.222656 5 4 5.222656 4 5.5 L 4 12.5 C 4 12.777344 4.222656 13 4.5 13 C 4.777344 13 5 12.777344 5 12.5 L 5 5.5 C 5 5.222656 4.777344 5 4.5 5 Z M 7.5 5 C 7.222656 5 7 5.222656 7 5.5 L 7 12.5 C 7 12.777344 7.222656 13 7.5 13 C 7.777344 13 8 12.777344 8 12.5 L 8 5.5 C 8 5.222656 7.777344 5 7.5 5 Z M 10.5 5 C 10.222656 5 10 5.222656 10 5.5 L 10 12.5 C 10 12.777344 10.222656 13 10.5 13 C 10.777344 13 11 12.777344 11 12.5 L 11 5.5 C 11 5.222656 10.777344 5 10.5 5 Z M 10.5 5 "/>
</svg>

<svg width="16" height="16" version="1.1" viewBox="0 0 16 16" xmlns="http://www.w3.org/2000/svg">
 <defs>
  <style id="current-color-scheme" type="text/css">.ColorScheme-Text {
        color:#FFFFFF;
      }
      .ColorScheme-NegativeText {
        color:#da4453;
      }</style>
 </defs>
 <path d="m6 0c-0.554 0-1 0.446-1 1v1h-4.5c-0.277 0-0.5 0.223-0.5 0.5s0.223 0.5 0.5 0.5h0.49805l0.54688 11.061c0.0612 1.0155 0.90615 1.9395 1.998 1.9395h7.9141c1.0919 0 1.9368-0.92391 1.998-1.9395l0.54688-11.061h0.49805c0.277 0 0.5-0.223 0.5-0.5s-0.223-0.5-0.5-0.5h-4.5v-1c0-0.554-0.446-1-1-1h-3zm0 1h3v1h-3v-1zm-4 2h11l-0.54297 11c-0.03333 0.553-0.446 1-1 1h-7.9141c-0.554 0-0.96667-0.447-1-1l-0.54297-11zm2.5 2c-0.277 0-0.5 0.223-0.5 0.5v7c0 0.277 0.223 0.5 0.5 0.5s0.5-0.223 0.5-0.5v-7c0-0.277-0.223-0.5-0.5-0.5zm3 0c-0.277 0-0.5 0.223-0.5 0.5v7c0 0.277 0.223 0.5 0.5 0.5s0.5-0.223 0.5-0.5v-7c0-0.277-0.223-0.5-0.5-0.5zm3 0c-0.277 0-0.5 0.223-0.5 0.5v7c0 0.277 0.223 0.5 0.5 0.5s0.5-0.223 0.5-0.5v-7c0-0.277-0.223-0.5-0.5-0.5z" style="fill:currentColor" class="ColorScheme-NegativeText"/>
</svg>
